!!!COM: des Prez, Josquin
!!!CDT: ~1450-1521/08/27
!!!OTL@@LAT: Salve regina
!!!OTL2@@LAT: Eia ergo, advocata nostra
!!!AGN: Motet
!!!SCT: NJE 25.5
!!!SCA: New Josquin Edition 25.5
!!!voices: 5
**kern	**text	**kern	**text	**kern	**text	**kern	**text	**kern	**text
*staff5	*	*staff4	*	*staff3	*	*staff2	*	*staff1	*
*Ivox	*	*Ivox	*	*Ivox	*	*Ivox	*	*Ivox	*
*I"Bassus	*	*I"Altus2	*	*I"Tenor	*	*I"Altus1	*	*I"Superius	*
*I'B	*	*I'A2	*	*I'T	*	*I'A1	*	*I'S	*
*>[A,B]	*	*>[A,B]	*	*>[A,B]	*	*>[A,B]	*	*>[A,B]	*
*>Part1[A]	*	*>Part1[A]	*	*>Part1[A]	*	*>Part1[A]	*	*>Part1[A]	*
*>Part2[B]	*	*>Part2[B]	*	*>Part2[B]	*	*>Part2[B]	*	*>Part2[B]	*
*>A	*	*>A	*	*>A	*	*>A	*	*>A	*
*clefF4	*	*clefGv2	*	*clefGv2	*	*clefGv2	*	*clefG2	*
*k[b-]	*	*k[b-]	*	*k[b-]	*	*k[b-]	*	*k[b-]	*
*M2/1	*	*M2/1	*	*M2/1	*	*M2/1	*	*M2/1	*
*met(C|)	*	*met(C|)	*	*met(C|)	*	*met(C|)	*	*met(C|)	*
=1-	=1	=1-	=1-	=1-	=1-	=1-	=1-	=1-	=1
!	!	!	!	!LO:TX:Z=6:t=T ostinato (alternating statements on g' and d')	!	!	!	!	!
0r	.	0r	.	0r	.	2.d\	Sal-	0dd	Sal-
.	.	.	.	.	.	4e\	.	.	.
.	.	.	.	.	.	4f\	.	.	.
.	.	.	.	.	.	4g\	.	.	.
.	.	.	.	.	.	[2f\	.	.	.
=2	=2	=2	=2	=2	=2	=2	=2	=2	=2
0r	.	0r	.	0r	.	2f\]	.	0cc	.
.	.	.	.	.	.	4e\	.	.	.
.	.	.	.	.	.	4d\	.	.	.
.	.	.	.	.	.	1e	.	.	.
=3	=3	=3	=3	=3	=3	=3	=3	=3	=3
1r	.	0d	Sal-	0r	.	0d	-ve,	0dd	.
1D	Sal-	.	.	.	.	.	.	.	.
=4	=4	=4	=4	=4	=4	=4	=4	=4	=4
2E\	-ve	0c	.	0g	Sal-	1r	.	0g	-ve
2C/	re-	.	.	.	.	.	.	.	.
1E	-gi-	.	.	.	.	1G	sal-	.	.
=5	=5	=5	=5	=5	=5	=5	=5	=5	=5
0D	-na,	0d	.	0f	.	1A	-ve	0r	.
.	.	.	.	.	.	1A	re-	.	.
=6	=6	=6	=6	=6	=6	=6	=6	=6	=6
1r	.	0G	-ve,	0g	.	2B-\	-gi-	0dd	re-
.	.	.	.	.	.	2G/	.	.	.
1G	sal-	.	.	.	.	1B-	.	.	.
=7	=7	=7	=7	=7	=7	=7	=7	=7	=7
2A\	-ve	1r	.	0c	-ve,	1A	-na,	0cc	.
2F\	re-	.	.	.	.	.	.	.	.
1A	-gi-	1c	sal-	.	.	2r	.	.	.
.	.	.	.	.	.	2A/	re-	.	.
=8	=8	=8	=8	=8	=8	=8	=8	=8	=8
0G	-na,	1d	-ve	0r	.	2B-\	-gi-	1.b-	-gi-
.	.	.	.	.	.	4G/	.	.	.
.	.	.	.	.	.	4A/	.	.	.
.	.	1G	re-	.	.	4B-\	.	.	.
.	.	.	.	.	.	4c\	.	.	.
.	.	.	.	.	.	4d\	.	4a/	.
.	.	.	.	.	.	4e\	.	4g/	.
=9	=9	=9	=9	=9	=9	=9	=9	=9	=9
1r	.	0d	-gi-	0r	.	4f\	.	1a	.
.	.	.	.	.	.	4g\	.	.	.
.	.	.	.	.	.	4a\	.	.	.
.	.	.	.	.	.	4f\	.	.	.
*	*	*	*	*	*	*met(3)	*	*	*
1G	sal-	.	.	.	.	3g\	.	1b-	.
.	.	.	.	.	.	3d\	.	.	.
.	.	.	.	.	.	3g\	.	.	.
=10	=10	=10	=10	=10	=10	=10	=10	=10	=10
*	*	*	*	*	*	*met(C|)	*	*	*
2A\	-ve	1c	-na,	0r	.	2e\	.	0cc	-na,
2F\	re-	.	.	.	.	2.f\	.	.	.
1A	-gi-	1F	re-	.	.	.	.	.	.
.	.	.	.	.	.	4g\	.	.	.
.	.	.	.	.	.	4a\	.	.	.
.	.	.	.	.	.	4f\	.	.	.
=11	=11	=11	=11	=11	=11	=11	=11	=11	=11
1G	-na,	2.B-\	-gi-	0d	Sal-	0g	-na	1r	.
.	.	4G/	.	.	.	.	.	.	.
2r	.	2G/	-na,	.	.	.	.	1b-	sal-
2G\	sal-	2g\	re-	.	.	.	.	.	.
=12	=12	=12	=12	=12	=12	=12	=12	=12	=12
2A\	-ve	2e\	-gi-	0c	.	0r	.	1.cc	-ve
2F\	re-	2.f\	.	.	.	.	.	.	.
1A	-gi-	.	.	.	.	.	.	.	.
.	.	4g\	.	.	.	.	.	.	.
.	.	4a\	.	.	.	.	.	2a/	re-
.	.	4f\	.	.	.	.	.	.	.
=13	=13	=13	=13	=13	=13	=13	=13	=13	=13
1G	-na,	2g\	.	0d	.	1r	.	2.b-\	-gi-
.	.	4d\	.	.	.	.	.	.	.
.	.	4e\	.	.	.	.	.	4cc\	.
2r	.	4f\	.	.	.	1d	mi-	1a	.
.	.	4g\	.	.	.	.	.	.	.
2D\	sal-	4a\	.	.	.	.	.	.	.
.	.	4f\	.	.	.	.	.	.	.
=14	=14	=14	=14	=14	=14	=14	=14	=14	=14
2E-i\	-ve	0g	-na	0G	-ve	2B-\	-se-	1g	-na,
2C/	re-	.	.	.	.	2.c\	.	.	.
1E-i	-gi-	.	.	.	.	.	.	2r	.
.	.	.	.	.	.	4B-\	.	.	.
.	.	.	.	.	.	2G/	-ri-	[2g/	re-
=15	=15	=15	=15	=15	=15	=15	=15	=15	=15
1D	-na,	1r	.	0r	.	2.B-\	-cor-	2g/]	.
.	.	.	.	.	.	.	.	4f#i/	.
.	.	.	.	.	.	4c\	.	4e/	.
2r	.	2r	.	.	.	1A	-di-	1f#i	-gi-
2D\	sal-	2d\	mi-	.	.	.	.	.	.
=16	=16	=16	=16	=16	=16	=16	=16	=16	=16
2E-i\	-ve	2B-\	-se-	0r	.	0G	.	0g	-na
2C/	re-	2.c\	.	.	.	.	.	.	.
1E-i	-gi-	.	.	.	.	.	-e,	.	.
.	.	4B-\	.	.	.	.	.	.	.
.	.	2G/	-ri-	.	.	.	.	.	.
=17	=17	=17	=17	=17	=17	=17	=17	=17	=17
0D	-na	2.B-\	-cor-	0r	.	1r	.	1r	.
.	.	4c\	.	.	.	.	.	.	.
.	.	1A	-di-	.	.	1d	mi-	1f	mi-
=18	=18	=18	=18	=18	=18	=18	=18	=18	=18
1r	.	0G	-e.	0g	Sal-	2B-\	-se-	1g	-se-
.	.	.	.	.	.	2G/	.	.	.
1G	mi-	.	.	.	.	1d	.	1b-	-ri-
=19	=19	=19	=19	=19	=19	=19	=19	=19	=19
1A	-se-	0r	.	0f	.	1c	.	1.cc	-cor-
1A	-ri-	.	.	.	.	1c	-ri-	.	.
.	.	.	.	.	.	.	.	4b-\	.
.	.	.	.	.	.	.	.	4a/	.
=20	=20	=20	=20	=20	=20	=20	=20	=20	=20
2.G\	-cor-	0r	.	0g	.	1.d	-cor-	2.b-\	.
4A\	.	.	.	.	.	.	.	4cc\	.
2B-\	.	.	.	.	.	.	.	2dd\	.
[2c\	.	.	.	.	.	[2e-i\	.	[2g/	.
=21	=21	=21	=21	=21	=21	=21	=21	=21	=21
4c\]	.	0r	.	0c	-ve	4e-\]	.	2g/]	.
4B-\	.	.	.	.	.	4d\	.	.	.
4A\	.	.	.	.	.	4c\	.	4f#i/	.
4G\	.	.	.	.	.	4B-\	.	4e/	.
1A	-di-	.	.	.	.	1c	-di-	1f#i	-di-
=22	=22	=22	=22	=22	=22	=22	=22	=22	=22
0G	-e.	1r	.	0r	.	1d	-e.	0g	-e.
.	.	1d	Vi-	.	.	1r	.	.	.
=23	=23	=23	=23	=23	=23	=23	=23	=23	=23
1r	.	1G	-ta,	0r	.	1d	Vi-	1r	.
[1B-	Vi-	2r	.	.	.	1G	-ta	[1dd	Vi-
.	.	2g\	vi-	.	.	.	.	.	.
=24	=24	=24	=24	=24	=24	=24	=24	=24	=24
2B-\]	.	2f\	-ta	0r	.	1d	dul-	2dd\]	.
2G\	.	2g\	dul-	.	.	.	.	2b-\	-ta
1A	.	1e	-ce-	.	.	1c	-ce-	1cc	dul-
=25	=25	=25	=25	=25	=25	=25	=25	=25	=25
0D	-ta,	1d	-do,	0d	Sal-	0f	-do,	0dd	-ce-
.	.	2r	.	.	.	.	.	.	.
.	.	2d\	vi-	.	.	.	.	.	.
=26	=26	=26	=26	=26	=26	=26	=26	=26	=26
0r	.	2e\	-ta	0c	.	0r	.	1g	-do,
.	.	2c\	dul-	.	.	.	.	.	.
.	.	1e	-ce-	.	.	.	.	2r	.
.	.	.	.	.	.	.	.	2g/	vi-
=27	=27	=27	=27	=27	=27	=27	=27	=27	=27
1r	.	1d	-do,	0d	.	1r	.	2f/	-ta
.	.	.	.	.	.	.	.	2g/	dul-
1D	vi-	2r	.	.	.	1f	vi-	1a	-ce-
.	.	2d\	vi-	.	.	.	.	.	.
=28	=28	=28	=28	=28	=28	=28	=28	=28	=28
2E\	-ta	2B-\	-ta	0G	-ve	2g\	-ta	1g	-do,
2C/	dul-	2c\	dul-	.	.	2e\	dul-	.	.
1E	-ce-	1G	-ce-	.	.	1g	-ce-	2r	.
.	.	.	.	.	.	.	.	2g/	vi-
=29	=29	=29	=29	=29	=29	=29	=29	=29	=29
1D	-do,	1d	-do,	0r	.	2.f\	-do,	2a/	-ta
.	.	.	.	.	.	.	.	2f/	dul-
.	.	.	.	.	.	4e\	.	.	.
2r	.	2r	.	.	.	1d	.	1a	-ce-
2D\	vi-	2f\	vi-	.	.	.	.	.	.
=30	=30	=30	=30	=30	=30	=30	=30	=30	=30
2E\	-ta	2g\	-ta	0r	.	1r	.	0g	-do
2C/	dul-	2e\	dul-	.	.	.	.	.	.
1E	-ce-	1g	-ce-	.	.	1G	vi-	.	.
=31	=31	=31	=31	=31	=31	=31	=31	=31	=31
0D	-do	1f	-do,	0r	.	2A/	-ta	1r	.
.	.	.	.	.	.	2F/	dul-	.	.
.	.	2r	.	.	.	1A	-ce-	1f	et
.	.	2d\	vi-	.	.	.	.	.	.
=32	=32	=32	=32	=32	=32	=32	=32	=32	=32
1r	.	2B-\	-ta	0g	Sal-	0G	-do	1g	spes
.	.	2G/	dul-	.	.	.	.	.	.
1G	et	1d	-ce-	.	.	.	.	1b-	no-
=33	=33	=33	=33	=33	=33	=33	=33	=33	=33
1A	spes	1c	-do	0f	.	0r	.	1.cc	-stra
1A	no-	2r	.	.	.	.	.	.	.
.	.	2c\	et	.	.	.	.	4b-\	.
.	.	.	.	.	.	.	.	4a/	.
=34	=34	=34	=34	=34	=34	=34	=34	=34	=34
2.G\	-stra	2d\	spes	0g	.	0r	.	2.b-\	.
.	.	2B-\	no-	.	.	.	.	.	.
4A\	.	.	.	.	.	.	.	4cc\	.
2B-\	.	2G/	-stra	.	.	.	.	2dd\	.
[2c\	sal-	[2g\	sal-	.	.	.	.	2g/	.
=35	=35	=35	=35	=35	=35	=35	=35	=35	=35
4c\]	.	2g\]	.	0c	-ve	1r	.	1.cc	.
4B-\	.	.	.	.	.	.	.	.	.
4A\	.	4f#i\	.	.	.	.	.	.	.
4G\	.	4e\	.	.	.	.	.	.	.
1A	.	1f#i	.	.	.	1c	et	.	.
.	.	.	.	.	.	.	.	4b-\	.
.	.	.	.	.	.	.	.	4a/	.
=36	=36	=36	=36	=36	=36	=36	=36	=36	=36
0G	-ve.	2g\	-ve,	0r	.	2d\	spes	2b-\	.
.	.	4G/	sal-	.	.	2B-\	no-	2.dd\	sal-
.	.	4A/	.	.	.	.	.	.	.
.	.	4B-\	.	.	.	4G/	-stra	.	.
.	.	4c\	.	.	.	4A/	.	4cc\	.
.	.	4d\	.	.	.	4B-\	.	2b-\	.
.	.	4e\	.	.	.	4c\	.	.	.
=37	=37	=37	=37	=37	=37	=37	=37	=37	=37
0r	.	2f\	.	0r	.	2d\	.	2a/	.
.	.	1g	.	.	.	2e-i\	sal-	2g/	.
.	.	.	.	.	.	1d	.	1a	.
.	.	2f#i\	.	.	.	.	.	.	.
=38	=38	=38	=38	=38	=38	=38	=38	=38	=38
1r	.	0g	-ve.	0r	.	1G	-ve.	0g	-ve.
1G	Ad	.	.	.	.	1r	.	.	.
=39	=39	=39	=39	=39	=39	=39	=39	=39	=39
2.B-\	te	0r	.	0d	Sal-	1G	Ad	0r	.
4c\	.	.	.	.	.	.	.	.	.
2d\	.	.	.	.	.	2.B-\	te	.	.
2G\	cla-	.	.	.	.	.	.	.	.
.	.	.	.	.	.	4A/	.	.	.
=40	=40	=40	=40	=40	=40	=40	=40	=40	=40
2A\	-ma-	0r	.	0c	.	2F/	.	1r	.
2F\	.	.	.	.	.	2.c\	cla-	.	.
1E	.	.	.	.	.	.	.	1g	Ad
.	.	.	.	.	.	4B-\	.	.	.
.	.	.	.	.	.	2G/	.	.	.
=41	=41	=41	=41	=41	=41	=41	=41	=41	=41
1D	-mus,	0r	.	0d	.	1A	-ma-	1f	.
1G	ad	.	.	.	.	1G	-mus,	[1b-	te,
=42	=42	=42	=42	=42	=42	=42	=42	=42	=42
2.B-\	te,	0r	.	0G	-ve	1r	.	2b-\]	.
.	.	.	.	.	.	.	.	4a/	.
4c\	.	.	.	.	.	.	.	4g/	.
1d	.	.	.	.	.	1G	ad	2.b-\	.
.	.	.	.	.	.	.	.	4cc\	.
=43	=43	=43	=43	=43	=43	=43	=43	=43	=43
1r	.	1G	Ad	0r	.	2.B-\	te,	1dd	.
.	.	.	.	.	.	4c\	.	.	.
1G	ad	[1B-	te	.	.	1d	.	2r	.
.	.	.	.	.	.	.	.	2b-\	ad
=44	=44	=44	=44	=44	=44	=44	=44	=44	=44
2G\	te	2B-\]	.	0r	.	1r	.	2b-\	te
2G\	cla-	4A/	cla-	.	.	.	.	2b-\	cla-
.	.	4G/	.	.	.	.	.	.	.
1G	-ma-	2.B-\	-ma-	.	.	1G	ad	1b-	-ma-
.	.	4c\	.	.	.	.	.	.	.
=45	=45	=45	=45	=45	=45	=45	=45	=45	=45
1D	-mus,	0d	-mus,	0r	.	1F	.	1a	-mus,
1G	ad	.	.	.	.	[1B-	te	2r	.
.	.	.	.	.	.	.	.	2b-\	ad
=46	=46	=46	=46	=46	=46	=46	=46	=46	=46
2G\	te	1r	.	0g	Sal-	2B-\]	.	2b-\	te
2G\	cla-	.	.	.	.	4A/	cla-	2b-\	cla-
.	.	.	.	.	.	4G/	.	.	.
1G	-ma-	1G	ad	.	.	2.B-\	-ma-	1b-	-ma-
.	.	.	.	.	.	4c\	.	.	.
=47	=47	=47	=47	=47	=47	=47	=47	=47	=47
1D	-mus,	2A/	te	0f	.	1d	-mus,	0a	-mus,
.	.	2F/	cla-	.	.	.	.	.	.
1D	ad	1A	-ma-	.	.	2r	.	.	.
.	.	.	.	.	.	2A/	ad	.	.
=48	=48	=48	=48	=48	=48	=48	=48	=48	=48
2G\	te	4G/	.	0g	.	2B-\	te	0r	.
.	.	4A/	.	.	.	.	.	.	.
2G\	cla-	4B-\	.	.	.	2G/	cla-	.	.
.	.	4c\	.	.	.	.	.	.	.
1G	-ma-	2d\	.	.	.	1B-	-ma-	.	.
.	.	2e\	.	.	.	.	.	.	.
=49	=49	=49	=49	=49	=49	=49	=49	=49	=49
0F	-mus,	1f	-mus,	0c	-ve	0A	-mus,	1r	.
.	.	2r	.	.	.	.	.	1cc	ex-
.	.	2F/	ex-	.	.	.	.	.	.
=50	=50	=50	=50	=50	=50	=50	=50	=50	=50
1r	.	1G	-u-	0r	.	1r	.	2b-\	-u-
.	.	.	.	.	.	.	.	2g/	.
1F	ex-	2F/	.	.	.	1c	ex-	1a	.
.	.	2f\	.	.	.	.	.	.	.
=51	=51	=51	=51	=51	=51	=51	=51	=51	=51
1G	-u-	2.d\	.	0r	.	2B-\	-u-	1g	-les
.	.	.	.	.	.	2G/	.	.	.
.	.	4e\	.	.	.	.	.	.	.
1F	-les	1f	-les	.	.	1A	.	1cc	.
=52	=52	=52	=52	=52	=52	=52	=52	=52	=52
1.G	fi-	1.B-	fi-	0r	.	2G/	-les	2r	.
.	.	.	.	.	.	1g	fi-	1b-	fi-
2G\	-li	2B-\	-li	.	.	2g\	-li	2b-\	-li
=53	=53	=53	=53	=53	=53	=53	=53	=53	=53
1G	E-	1G	E-	0d	Sal-	1g	E-	1b-	E-
1D	-ve,	2A/	-ve,	.	.	1f	-ve.	1a	-ve,
.	.	4F/	fi-	.	.	.	.	.	.
.	.	4G/	.	.	.	.	.	.	.
=54	=54	=54	=54	=54	=54	=54	=54	=54	=54
2F\	fi-	4A/	.	0c	.	0r	.	2r	.
.	.	4B-\	.	.	.	.	.	.	.
2C/	-li	2.c\	.	.	.	.	.	2g/	fi-
1E	E-	.	.	.	.	.	.	2g/	-li
.	.	4B-\	.	.	.	.	.	.	.
.	.	2G/	-li	.	.	.	.	[2g/	E-
=55	=55	=55	=55	=55	=55	=55	=55	=55	=55
0D	-ve.	2.B-\	E-	0d	.	0r	.	2g/]	.
.	.	.	.	.	.	.	.	4f#i/	.
.	.	4c\	.	.	.	.	.	4e/	.
.	.	1A	-ve.	.	.	.	.	1f#i	.
=56	=56	=56	=56	=56	=56	=56	=56	=56	=56
2r	.	1r	.	0G	-ve	1.B-	Ad	0g	-ve.
1d	Ad	.	.	.	.	.	.	.	.
.	.	1G	Ad	.	.	.	.	.	.
2B-\	te	.	.	.	.	2G/	te	.	.
=57	=57	=57	=57	=57	=57	=57	=57	=57	=57
2c\	su-	1F	te	0r	.	2A/	su-	0r	.
2d\	-spi-	.	.	.	.	2D/	-spi-	.	.
[1G	-ra-	2.B-\	su-	.	.	2.d\	-ra-	.	.
.	.	4A/	.	.	.	4c\	.	.	.
=58	=58	=58	=58	=58	=58	=58	=58	=58	=58
2G\]	.	2B-\	-spi-	0r	.	2B-\	.	1r	.
2F\	.	2.c\	-ra-	.	.	2A/	.	.	.
1E	.	.	.	.	.	1G	.	1g	Ad
.	.	4B-\	.	.	.	.	.	.	.
.	.	2c\	.	.	.	.	.	.	.
=59	=59	=59	=59	=59	=59	=59	=59	=59	=59
1D	.	0d	-mus,	0r	.	2A/	.	1f	.
.	.	.	.	.	.	2.B-\	.	.	.
1G	-mus,	.	.	.	.	.	.	2.b-\	te
.	.	.	.	.	.	4G/	.	.	.
.	.	.	.	.	.	[2g\	.	.	.
.	.	.	.	.	.	.	.	4a/	.
=60	=60	=60	=60	=60	=60	=60	=60	=60	=60
0r	.	0r	.	0g	Sal-	4g\]	.	2b-\	.
.	.	.	.	.	.	4f\	.	.	.
.	.	.	.	.	.	4e-i\	.	2.cc\	.
.	.	.	.	.	.	4d\	.	.	.
.	.	.	.	.	.	1e-i	.	.	.
.	.	.	.	.	.	.	.	4b-\	.
.	.	.	.	.	.	.	.	2cc\	.
=61	=61	=61	=61	=61	=61	=61	=61	=61	=61
0r	.	0r	.	0f	.	1d	-mus,	1dd	.
.	.	.	.	.	.	2r	.	1ff	su-
.	.	.	.	.	.	2d\	su-	.	.
=62	=62	=62	=62	=62	=62	=62	=62	=62	=62
1r	.	1r	.	0g	.	2c\	.	2ee\	-spi-
.	.	.	.	.	.	2B-\	-spi-	1dd	-ra-
1G	su-	2.d\	su-	.	.	1G	-ra-	.	.
.	.	.	.	.	.	.	.	4cc\	.
.	.	4e\	.	.	.	.	.	4b-\	.
=63	=63	=63	=63	=63	=63	=63	=63	=63	=63
2.F\	-spi-	4f\	.	0c	-ve	0A	-mus,	2cc\	.
.	.	4g\	.	.	.	.	.	.	.
.	.	2.a\	.	.	.	.	.	4a/	.
4G\	.	.	.	.	.	.	.	4b-\	.
4A\	.	.	.	.	.	.	.	4cc\	.
4B-\	.	4g\	.	.	.	.	.	4dd\	.
2c\	.	2e\	-spi-	.	.	.	.	[2ee\	.
=64	=64	=64	=64	=64	=64	=64	=64	=64	=64
2d\	-ra-	2f\	-ra-	0r	.	0r	.	4ee\]	.
.	.	.	.	.	.	.	.	4dd\	.
2G\	.	2g\	.	.	.	.	.	1dd	.
1A	.	1e	.	.	.	.	.	.	.
.	.	.	.	.	.	.	.	2cc#i\	.
=65	=65	=65	=65	=65	=65	=65	=65	=65	=65
0D	-mus,	1d	-mus,	0r	.	1r	.	0dd	-mus,
.	.	1r	.	.	.	1A	ge-	.	.
=66	=66	=66	=66	=66	=66	=66	=66	=66	=66
0r	.	1d	ge-	0r	.	1B-	-men-	1r	.
.	.	1e	-men-	.	.	2c\	-tes	1g	ge-
.	.	.	.	.	.	2e\	et	.	.
=67	=67	=67	=67	=67	=67	=67	=67	=67	=67
1r	.	1f	.	0d	Sal-	2.d\	flen-	1a	-men-
.	.	.	.	.	.	4c\	.	.	.
1G	ge-	1g	-tes	.	.	1B-	.	1b-	.
=68	=68	=68	=68	=68	=68	=68	=68	=68	=68
1A	-men-	2r	.	0c	.	0A	-tes,	1.cc	.
.	.	2e\	et	.	.	.	.	.	.
[1F	.	2.a\	flen-	.	.	.	.	.	.
.	.	.	.	.	.	.	.	2a/	.
.	.	4g\	.	.	.	.	.	.	.
=69	=69	=69	=69	=69	=69	=69	=69	=69	=69
2F\]	.	4f\	.	0d	.	0r	.	1a	-tes
.	.	4e\	.	.	.	.	.	.	.
2D\	.	2.f\	.	.	.	.	.	.	.
2D\	-tes	.	.	.	.	.	.	2a/	et
.	.	4e\	.	.	.	.	.	.	.
[2G\	et	4d\	.	.	.	.	.	[2b-\	flen-
.	.	4c\	.	.	.	.	.	.	.
=70	=70	=70	=70	=70	=70	=70	=70	=70	=70
4G\]	.	2d\	.	0G	-ve	1r	.	4b-\]	.
4F\	.	.	.	.	.	.	.	4a/	.
4E-i\	.	2.e-\	.	.	.	.	.	4g/	.
4D\	.	.	.	.	.	.	.	4f/	.
1E-i	flen-	.	.	.	.	1G	ge-	1g	.
.	.	4B-\	.	.	.	.	.	.	.
.	.	2c\	.	.	.	.	.	.	.
=71	=71	=71	=71	=71	=71	=71	=71	=71	=71
1D	-tes	1d	-tes,	0r	.	1A	.	0f	-tes
1D	ge-	2r	.	.	.	1B-	.	.	.
.	.	2d\	et	.	.	.	.	.	.
=72	=72	=72	=72	=72	=72	=72	=72	=72	=72
1C	.	1e	flen-	0r	.	1.c	men-	0r	.
[1F	-men-	1A	-tes,	.	.	.	.	.	.
.	.	.	.	.	.	2A/	.	.	.
=73	=73	=73	=73	=73	=73	=73	=73	=73	=73
2F\]	.	2r	.	0r	.	1A	-tes	0r	.
2D\	.	2.f\	et	.	.	.	.	.	.
2D\	-tes,	.	.	.	.	2A/	et	.	.
.	.	4e\	.	.	.	.	.	.	.
[2G\	et	4d\	.	.	.	[2B-\	flen-	.	.
.	.	4c\	.	.	.	.	.	.	.
=74	=74	=74	=74	=74	=74	=74	=74	=74	=74
4G\]	.	2d\	.	0g	Sal-	4B-\]	.	0r	.
4F\	.	.	.	.	.	4A/	.	.	.
4E-i\	.	2.e-i\	flen-	.	.	4G/	.	.	.
4D\	.	.	.	.	.	4F/	.	.	.
1E-i	flen-	.	.	.	.	1G	.	.	.
.	.	4B-\	.	.	.	.	.	.	.
.	.	2c\	.	.	.	.	.	.	.
=75	=75	=75	=75	=75	=75	=75	=75	=75	=75
1D	-tes	0d	-tes	0f	.	0A	-tes	1r	.
1D	in	.	.	.	.	.	.	1a	in
=76	=76	=76	=76	=76	=76	=76	=76	=76	=76
1G	.	2r	.	0g	.	2r	.	1b-	.
.	.	2B-\	in	.	.	2G/	in	.	.
1G	hac	2G/	hac	.	.	2B-\	hac	1b-	hac
.	.	2g\	la-	.	.	2G/	la-	.	.
=77	=77	=77	=77	=77	=77	=77	=77	=77	=77
1A	la-	2e\	-cri-	0c	-ve	2c\	-cri-	1cc	la-
.	.	2.a\	-ma-	.	.	4F/	-ma-	.	.
.	.	.	.	.	.	4G/	.	.	.
1A	-cri-	.	.	.	.	4A/	.	2.cc\	-cri-
.	.	4g\	.	.	.	4B-\	.	.	.
.	.	2e\	.	.	.	2c\	.	.	.
.	.	.	.	.	.	.	.	4a/	.
=78	=78	=78	=78	=78	=78	=78	=78	=78	=78
2.D\	-ma-	2f\	-rum	0r	.	2F/	-rum	2.a/	-ma-
.	.	2.d\	val-	.	.	2.f\	val-	.	.
4E\	.	.	.	.	.	.	.	4g/	.
2F\	-rum	.	.	.	.	.	.	2a/	-rum
.	.	4c\	.	.	.	4e\	.	.	.
[2G\	val-	4B-\	.	.	.	4d\	.	[2b-\	val-
.	.	4A/	.	.	.	4c\	.	.	.
=79	=79	=79	=79	=79	=79	=79	=79	=79	=79
4G\]	.	2B-\	.	0r	.	2d\	.	4b-\]	.
4F\	.	.	.	.	.	.	.	4a/	.
4E-i\	.	2c\	.	.	.	2.e-i\	.	4g/	.
4D\	.	.	.	.	.	.	.	4f/	.
1E-i	.	2G/	-le,	.	.	.	.	1g	-le,
.	.	.	.	.	.	4d\	.	.	.
.	.	[2g\	val-	.	.	4B-\	.	.	.
.	.	.	.	.	.	4c\	.	.	.
=80	=80	=80	=80	=80	=80	=80	=80	=80	=80
1D	-le,	2g\]	.	0r	.	1d	-le,	1r	.
.	.	4f\	.	.	.	.	.	.	.
.	.	4e\	.	.	.	.	.	.	.
1D	in	1f	-le,	.	.	2r	.	1a	in
.	.	.	.	.	.	2d\	in	.	.
=81	=81	=81	=81	=81	=81	=81	=81	=81	=81
1G	.	2r	.	0d	Sal-	2B-\	hac	1b-	.
.	.	2B-\	in	.	.	2G/	la-	.	.
1G	hac	2G/	hac	.	.	2B-\	-cri-	1b-	hac
.	.	2g\	la-	.	.	2G/	.	.	.
=82	=82	=82	=82	=82	=82	=82	=82	=82	=82
1A	la-	2e\	-cri-	0c	.	2c\	.	1cc	la-
.	.	2.a\	-ma-	.	.	4F/	-ma-	.	.
.	.	.	.	.	.	4G/	.	.	.
1A	-cri-	.	.	.	.	4A/	.	2.cc\	-cri-
.	.	4g\	.	.	.	4B-\	.	.	.
.	.	2e\	.	.	.	2c\	.	.	.
.	.	.	.	.	.	.	.	4a/	.
=83	=83	=83	=83	=83	=83	=83	=83	=83	=83
2.D\	-ma-	2f\	-rum	0d	.	2F/	-rum	2.a/	-ma-
.	.	2.d\	val-	.	.	2.f\	val-	.	.
4E\	.	.	.	.	.	.	.	4g/	.
2F\	-rum	.	.	.	.	.	.	2a/	-rum
.	.	4c\	.	.	.	4e\	.	.	.
[2G\	val-	4B-\	.	.	.	4d\	.	[2b-\	val-
.	.	4A/	.	.	.	4c\	.	.	.
=84	=84	=84	=84	=84	=84	=84	=84	=84	=84
4G\]	.	2B-\	.	0G	-ve	2d\	.	4b-\]	.
4F\	.	.	.	.	.	.	.	4a/	.
4E-i\	.	2c\	.	.	.	2.e-\	.	4g/	.
4D\	.	.	.	.	.	.	.	4f/	.
1E-i	.	1G	-le,	.	.	.	.	2g/	-le.
.	.	.	.	.	.	4d\	.	.	.
.	.	.	.	.	.	4B-\	.	[2b-\	val-
.	.	.	.	.	.	4c\	.	.	.
=85	=85	=85	=85	=85	=85	=85	=85	=85	=85
0D	.	2.B-\	val-	0r	.	[0dl	-le.	2b-\]	.
.	.	.	.	.	.	.	.	4a/	.
.	.	4c\	.	.	.	.	.	4g/	.
.	.	1A	.	.	.	.	.	4f#i/	.
.	.	.	.	.	.	.	.	4g/	.
.	.	.	.	.	.	.	.	4a/	.
.	.	.	.	.	.	.	.	4f#i/	.
=86	=86	=86	=86	=86	=86	=86	=86	=86	=86
0Gl	-le.	0Gl	-le.	0Gl	.	0d]	.	0gl	-le.
!!LO:LB:i:g=z	.		.		.		.		.
=87||	=87||	=87||	=87||	=87||	=87||	=87||	=87||	=87||	=87||
*>B	*	*>B	*	*>B	*	*>B	*	*>B	*
!!section: Secunda pars: Eia ergo, advocata nostra
!!!OMD: Secunda pars: Eia ergo, advocata nostra
0r	.	0r	.	0r	.	1g	E-	1r	.
.	.	.	.	.	.	2g\	-ya	[1b-	E-
.	.	.	.	.	.	[2g\	er-	.	.
=88	=88	=88	=88	=88	=88	=88	=88	=88	=88
0r	.	0r	.	0r	.	4g\]	.	2b-\]	.
.	.	.	.	.	.	4f\	.	.	.
.	.	.	.	.	.	4e-i\	.	2b-\	-ya
.	.	.	.	.	.	4d\	.	.	.
.	.	.	.	.	.	1e-i	.	1cc	er-
=89	=89	=89	=89	=89	=89	=89	=89	=89	=89
1G	E-	1r	.	0r	.	0d	-go,	0dd	-go,
2G\	-ya	[1B-	E-	.	.	.	.	.	.
[2G\	er-	.	.	.	.	.	.	.	.
=90	=90	=90	=90	=90	=90	=90	=90	=90	=90
4G\]	.	2B-\]	.	0g	Sal-	1r	.	0r	.
4F\	.	.	.	.	.	.	.	.	.
4E-i\	.	2B-\	-ya	.	.	.	.	.	.
4D\	.	.	.	.	.	.	.	.	.
1E-i	.	1c	er-	.	.	1G	ad-	.	.
=91	=91	=91	=91	=91	=91	=91	=91	=91	=91
0D	-go,	0d	-go,	0f	.	1A	-vo-	1.ff	ad-
.	.	.	.	.	.	1A	-ca-	.	.
.	.	.	.	.	.	.	.	2ee\	-vo-
=92	=92	=92	=92	=92	=92	=92	=92	=92	=92
1G	ad-	1r	.	0g	.	1B-	-ta	2.dd\	-ca-
.	.	.	.	.	.	.	.	4cc\	.
1G	-vo-	1d	ad-	.	.	1G	no-	1b-	-ta
=93	=93	=93	=93	=93	=93	=93	=93	=93	=93
2.F\	-ca-	1f	-vo-	0c	-ve	0A	-stra,	2.a/	no-
4G\	.	.	.	.	.	.	.	4b-\	.
4A\	.	1e	.	.	.	.	.	4cc\	.
4B-\	.	.	.	.	.	.	.	4dd\	.
2c\	.	.	.	.	.	.	.	[2ee\	.
=94	=94	=94	=94	=94	=94	=94	=94	=94	=94
2A\	-ta	1a	-ca-	0r	.	0r	.	2ee\]	.
1d	no-	.	.	.	.	.	.	2ff\	.
.	.	2f\	-ta	.	.	.	.	2dd\	.
[2c\	.	[2g\	no-	.	.	.	.	[2ee\	.
=95	=95	=95	=95	=95	=95	=95	=95	=95	=95
4c\]	.	4g\]	.	0r	.	1r	.	4ee\]	.
4d\	.	4f\	.	.	.	.	.	4dd\	.
2B-\	.	2d\	.	.	.	.	.	1dd	.
1A	.	1e	.	.	.	1e	ad-	.	.
.	.	.	.	.	.	.	.	2cc#i\	.
=96	=96	=96	=96	=96	=96	=96	=96	=96	=96
1D	-stra,	0d	-stra,	0r	.	1f	-vo-	0dd	-stra,
[1B-	ad-	.	.	.	.	1f	-ca-	.	.
=97	=97	=97	=97	=97	=97	=97	=97	=97	=97
2B-\]	.	0r	.	0d	Sal-	2.B-\	-ta	0r	.
2A\	-vo-	.	.	.	.	.	.	.	.
.	.	.	.	.	.	4c\	.	.	.
2G\	-ca-	.	.	.	.	1d	no-	.	.
2F\	-ta	.	.	.	.	.	.	.	.
=98	=98	=98	=98	=98	=98	=98	=98	=98	=98
2.E-\	no-	1g	il-	0c	.	0G	-stra,	0r	.
4D\	.	.	.	.	.	.	.	.	.
1E-i	.	1g	-los	.	.	.	.	.	.
=99	=99	=99	=99	=99	=99	=99	=99	=99	=99
2D\	-stra,	1.f	tu-	0d	.	0r	.	0r	.
2d\	il-	.	.	.	.	.	.	.	.
2B-\	-los	.	.	.	.	.	.	.	.
[2G\	tu-	4e-i\	.	.	.	.	.	.	.
.	.	4d\	.	.	.	.	.	.	.
=100	=100	=100	=100	=100	=100	=100	=100	=100	=100
4G\]	.	2e-i\	.	0G	-ve	1g	il-	0r	.
4F\	.	.	.	.	.	.	.	.	.
4E-i\	.	1d	.	.	.	.	.	.	.
4D\	.	.	.	.	.	.	.	.	.
1E-i	.	.	.	.	.	1g	-los	.	.
.	.	2c\	.	.	.	.	.	.	.
=101	=101	=101	=101	=101	=101	=101	=101	=101	=101
2D\	-os,	0d	.	0r	.	1.f	tu-	0r	.
2d\	il-	.	.	.	.	.	.	.	.
2B-\	-los	.	.	.	.	.	.	.	.
[2G\	tu-	.	.	.	.	4e-i\	.	.	.
.	.	.	.	.	.	4d\	.	.	.
=102	=102	=102	=102	=102	=102	=102	=102	=102	=102
4G\]	.	0G	-os	0r	.	2e-i\	.	1gg	il-
4F\	.	.	.	.	.	.	.	.	.
4E-i\	.	.	.	.	.	1d	.	.	.
4D\	.	.	.	.	.	.	.	.	.
1E-i	.	.	.	.	.	.	.	1gg	-los
.	.	.	.	.	.	2c\	.	.	.
=103	=103	=103	=103	=103	=103	=103	=103	=103	=103
0D	-os	0r	.	0r	.	1d	-os,	1.ff	tu-
.	.	.	.	.	.	2r	.	.	.
.	.	.	.	.	.	2d\	il-	4ee-i\	.
.	.	.	.	.	.	.	.	4dd\	.
=104	=104	=104	=104	=104	=104	=104	=104	=104	=104
0r	.	0r	.	0g	Sal-	2c\	-los	2ee-i\	.
.	.	.	.	.	.	2B-\	.	1dd	.
.	.	.	.	.	.	1e-i	tu-	.	.
.	.	.	.	.	.	.	.	2cc\	.
=105	=105	=105	=105	=105	=105	=105	=105	=105	=105
0r	.	1r	.	0f	.	0d	-os	0dd	-os
.	.	1d	mi-	.	.	.	.	.	.
=106	=106	=106	=106	=106	=106	=106	=106	=106	=106
1r	.	2c\	-se-	0g	.	0r	.	0r	.
.	.	2G/	-ri-	.	.	.	.	.	.
1G	mi-	1B-	-cor-	.	.	.	.	.	.
=107	=107	=107	=107	=107	=107	=107	=107	=107	=107
2F\	-se-	2A/	-des	0c	-ve	0r	.	1r	.
2C/	-ri-	2.c\	o-	.	.	.	.	.	.
1E-	-cor-	.	.	.	.	.	.	1gg	mi-
.	.	4B-\	.	.	.	.	.	.	.
.	.	2G/	.	.	.	.	.	.	.
=108	=108	=108	=108	=108	=108	=108	=108	=108	=108
2D\	-des	1d	-cu-	0r	.	1r	.	2ff\	-se-
2BB-/	o-	.	.	.	.	.	.	2dd\	-ri-
1C	-cu-	1c	-los,	.	.	1g	mi-	1ee-i	-cor-
=109	=109	=109	=109	=109	=109	=109	=109	=109	=109
2D\	-los,	0r	.	0r	.	2f\	-se-	1dd	-des
2BB-/	o-	.	.	.	.	2d\	-ri-	.	.
1C	-cu-	.	.	.	.	1e-i	-cor-	2r	.
.	.	.	.	.	.	.	.	2cc\	o-
=110	=110	=110	=110	=110	=110	=110	=110	=110	=110
2D\	-los,	1r	.	0r	.	2d\	-des	2a/	.
2BB-/	o-	.	.	.	.	2d\	o-	2b-\	.
1C	-cu-	1c	o-	.	.	4e\	-cu-	1g	-cu-
.	.	.	.	.	.	4f\	.	.	.
.	.	.	.	.	.	4g\	.	.	.
.	.	.	.	.	.	4e\	.	.	.
=111	=111	=111	=111	=111	=111	=111	=111	=111	=111
1D	-los	1A	-cu-	0d	Sal-	0f	-los	1f	-los
1BB-	ad	1B-	.	.	.	.	.	2r	.
.	.	.	.	.	.	.	.	2d/	ad
=112	=112	=112	=112	=112	=112	=112	=112	=112	=112
2C/	nos	0G	.	0c	.	0r	.	2e/	nos
2D\	con-	.	.	.	.	.	.	2f/	con-
1E-	-ver-	.	.	.	.	.	.	1g	-ver-
=113	=113	=113	=113	=113	=113	=113	=113	=113	=113
1D	-te,	1A	-los	0d	.	1r	.	1f	-te,
1BB-	ad	1d	ad	.	.	1f	ad	2r	.
.	.	.	.	.	.	.	.	2d/	ad
=114	=114	=114	=114	=114	=114	=114	=114	=114	=114
2C/	nos	2c\	nos	0G	-ve	2e\	nos	2e/	nos
2D\	con-	2B-\	con-	.	.	2d\	con-	2f/	con-
1E-i	-ver-	1G	-ver-	.	.	2.B-\	-ver-	[1g	-ver-
.	.	.	.	.	.	4c\	.	.	.
=115	=115	=115	=115	=115	=115	=115	=115	=115	=115
1D	-te,	1A	-te,	0r	.	1d	-te,	2g/]	.
.	.	.	.	.	.	.	.	4f#i/	.
.	.	.	.	.	.	.	.	4e/	.
2r	.	2r	.	.	.	2r	.	1f#i	.
2D\	ad	2A/	ad	.	.	2d\	ad	.	.
=116	=116	=116	=116	=116	=116	=116	=116	=116	=116
2E-i\	nos	2G/	nos	[0Gl	.	2c\	nos	[0gl	-te.
2E-i\	con-	2G/	con-	.	.	2B-\	con-	.	.
1C	-ver-	1c	-ver-	.	.	1e-i	-ver-	.	.
=117	=117	=117	=117	=117	=117	=117	=117	=117	=117
0Gl	-te.	0B-l	-te.	0G]	.	0dl	-te.	0g]	.
!!LO:LB:i:g=z	.		.		.		.		.
=118||	.	=118||	.	=118||	.	=118||	.	=118||	.
*>B	*	*>B	*	*>B	*	*>B	*	*>B	*
!!section: Tertia pars: Et Jesum benedictum
!!!OMD: Tertia pars: Et Jesum benedictum
0G	Et	[0d	Et	0r	.	0g	Et	0b-	Et
=119	=119	=119	=119	=119	=119	=119	=119	=119	=119
0D	Je-	0d]	.	0r	.	0f	Je-	0a	Je-
=120	=120	=120	=120	=120	=120	=120	=120	=120	=120
0F	.	0c	Je-	0r	.	0f	-sum	0a	-sum
=121	=121	=121	=121	=121	=121	=121	=121	=121	=121
1G	-sum	1B-	-sum	0g	Sal-	0r	.	1r	.
1G	be-	1d	be-	.	.	.	.	1b-	be-
=122	=122	=122	=122	=122	=122	=122	=122	=122	=122
1A	-ne-	1c	.	0f	.	1r	.	1cc	-ne-
[1B-	-di-	1B-	-ne-	.	.	1d	be-	[1dd	-di-
=123	=123	=123	=123	=123	=123	=123	=123	=123	=123
2B-\]	.	0G	-di-	0g	.	1d	-ne-	2dd\]	.
2A\	.	.	.	.	.	.	.	2cc\	.
1G	.	.	.	.	.	2.d\	-di-	1b-	.
.	.	.	.	.	.	4e\	.	.	.
=124	=124	=124	=124	=124	=124	=124	=124	=124	=124
0F	-ctum	1A	.	0c	-ve	0f	.	0a	-ctum
.	.	1c	.	.	.	.	.	.	.
=125	=125	=125	=125	=125	=125	=125	=125	=125	=125
0r	.	1B-	-ctum	0r	.	1d	-ctum	1r	.
.	.	1A	fru-	.	.	2.e\	fru-	1cc	fru-
.	.	.	.	.	.	4f\	.	.	.
=126	=126	=126	=126	=126	=126	=126	=126	=126	=126
0r	.	2G/	-ctum	0r	.	2g\	-ctum	1b-	-ctum
.	.	2.d\	ven-	.	.	2.f\	ven-	.	.
.	.	.	.	.	.	.	.	1a	.
.	.	4c\	.	.	.	4e\	.	.	.
.	.	2A/	.	.	.	2c\	.	.	.
=127	=127	=127	=127	=127	=127	=127	=127	=127	=127
1r	.	2B-\	.	0r	.	2d\	.	1g	ven-
.	.	2c\	-tris	.	.	2e\	.	.	.
1F	fru-	1A	tu-	.	.	1f	-tris	1cc	-tris
=128	=128	=128	=128	=128	=128	=128	=128	=128	=128
1.G	-ctum	1G	-i,	0d	Sal-	2.B-\	tu-	1.b-	tu-
.	.	.	.	.	.	4c\	.	.	.
.	.	1r	.	.	.	4d\	.	.	.
.	.	.	.	.	.	4e\	.	.	.
2D\	ven-	.	.	.	.	[2f\	.	4a/	.
.	.	.	.	.	.	.	.	4g/	.
=129	=129	=129	=129	=129	=129	=129	=129	=129	=129
2F\	-tris	0r	.	0c	.	2f\]	.	2a/	.
2G\	.	.	.	.	.	4e\	.	1g	.
.	.	.	.	.	.	4d\	.	.	.
1A	tu-	.	.	.	.	2c\	.	.	.
.	.	.	.	.	.	2A/	.	2f#i/	.
=130	=130	=130	=130	=130	=130	=130	=130	=130	=130
0G	-i,	1.G	no-	0d	.	1B-	-i,	1g	-i,
.	.	.	.	.	.	1r	.	[1dd	no-
.	.	2A/	.	.	.	.	.	.	.
=131	=131	=131	=131	=131	=131	=131	=131	=131	=131
0r	.	2B-\	.	0G	-ve	0r	.	2dd\]	.
.	.	2c\	.	.	.	.	.	2cc\	.
.	.	2d\	.	.	.	.	.	2.b-\	.
.	.	[2e\	.	.	.	.	.	.	.
.	.	.	.	.	.	.	.	4a/	.
=132	=132	=132	=132	=132	=132	=132	=132	=132	=132
0r	.	4e\]	.	0r	.	0r	.	2g/	.
.	.	4d\	.	.	.	.	.	.	.
.	.	1d	.	.	.	.	.	2f/	.
.	.	.	.	.	.	.	.	1e	.
.	.	2c#i\	.	.	.	.	.	.	.
=133	=133	=133	=133	=133	=133	=133	=133	=133	=133
1r	.	0d	-bis,	0r	.	1.G	no-	0d	-bis
[1d	no-	.	.	.	.	.	.	.	.
.	.	.	.	.	.	2A/	.	.	.
=134	=134	=134	=134	=134	=134	=134	=134	=134	=134
2d\]	.	0r	.	0r	.	2B-\	.	0r	.
2c\	.	.	.	.	.	2c\	.	.	.
2B-\	.	.	.	.	.	2d\	.	.	.
2A\	.	.	.	.	.	[2e\	.	.	.
=135	=135	=135	=135	=135	=135	=135	=135	=135	=135
2.G\	.	2r	.	0g	Sal-	4e\]	.	0r	.
.	.	.	.	.	.	4d\	.	.	.
.	.	2.G/	no-	.	.	1d	.	.	.
4F\	.	.	.	.	.	.	.	.	.
1E	.	.	.	.	.	.	.	.	.
.	.	4F/	.	.	.	.	.	.	.
.	.	4G/	.	.	.	2c#i\	.	.	.
.	.	4A/	.	.	.	.	.	.	.
=136	=136	=136	=136	=136	=136	=136	=136	=136	=136
0D	-bis	2.B-\	.	0f	.	0d	-bis	1r	.
.	.	4c\	.	.	.	.	.	.	.
.	.	1A	.	.	.	.	.	2r	.
.	.	.	.	.	.	.	.	[2dd\	post
=137	=137	=137	=137	=137	=137	=137	=137	=137	=137
0r	.	0G	-bis	0g	.	1r	.	4dd\]	.
.	.	.	.	.	.	.	.	4cc\	.
.	.	.	.	.	.	.	.	4b-\	.
.	.	.	.	.	.	.	.	4a/	.
.	.	.	.	.	.	1d	post	1b-	.
=138	=138	=138	=138	=138	=138	=138	=138	=138	=138
0r	.	0r	.	0c	-ve	1e	hoc	1cc	hoc
.	.	.	.	.	.	1e	ex-	1g	ex-
=139	=139	=139	=139	=139	=139	=139	=139	=139	=139
0r	.	0r	.	0r	.	2.f\	-i-	2.a/	-i-
.	.	.	.	.	.	4d\	.	4b-\	.
.	.	.	.	.	.	4e\	.	2cc\	.
.	.	.	.	.	.	4f\	.	.	.
.	.	.	.	.	.	[2g\	.	[2b-\	.
=140	=140	=140	=140	=140	=140	=140	=140	=140	=140
1r	.	0r	.	0r	.	4g\]	.	4b-\]	.
.	.	.	.	.	.	4f\	.	4a/	.
.	.	.	.	.	.	1f	.	4g/	.
.	.	.	.	.	.	.	.	4f/	.
1C	post	.	.	.	.	.	.	1g	-li-
.	.	.	.	.	.	2e\	-li-	.	.
=141	=141	=141	=141	=141	=141	=141	=141	=141	=141
2.F\	hoc	0r	.	0r	.	1f	-um	1f	-um
4G\	.	.	.	.	.	.	.	.	.
1A	.	.	.	.	.	1F	o-	1cc	o-
=142	=142	=142	=142	=142	=142	=142	=142	=142	=142
1G	.	0r	.	0d	Sal-	2.B-\	-sten-	2.b-\	-sten-
.	.	.	.	.	.	4c\	.	4a/	.
2r	.	.	.	.	.	4d\	.	4f/	.
.	.	.	.	.	.	4e\	.	4g/	.
2D\	ex-	.	.	.	.	[2f\	.	[2a/	.
=143	=143	=143	=143	=143	=143	=143	=143	=143	=143
2F\	-i-	0r	.	0c	.	2f\]	.	4a/]	.
.	.	.	.	.	.	.	.	4g/	.
2G\	-li-	.	.	.	.	4e\	.	1g	.
.	.	.	.	.	.	4d\	.	.	.
1A	-um	.	.	.	.	2c\	.	.	.
.	.	.	.	.	.	2A/	.	2f#i/	.
=144	=144	=144	=144	=144	=144	=144	=144	=144	=144
2G\	o-	1r	.	0d	.	2.B-\	.	0g	-de.
2.B-\	-sten-	.	.	.	.	.	.	.	.
.	.	.	.	.	.	4G/	.	.	.
.	.	[1d	O	.	.	1G	-de.	.	.
4A\	.	.	.	.	.	.	.	.	.
[2G\	.	.	.	.	.	.	.	.	.
=145	=145	=145	=145	=145	=145	=145	=145	=145	=145
4G\]	.	2d\]	.	0G	-ve	1r	.	0r	.
4F\	.	.	.	.	.	.	.	.	.
4E\	.	4c\	.	.	.	.	.	.	.
4D\	.	4B-\	.	.	.	.	.	.	.
1E	.	1c	cle-	.	.	1g	O	.	.
=146	=146	=146	=146	=146	=146	=146	=146	=146	=146
0D	-de.	0d	-mens,	0r	.	1.f	cle-	1r	.
.	.	.	.	.	.	.	.	[1dd	O
.	.	.	.	.	.	4e\	.	.	.
.	.	.	.	.	.	4d\	.	.	.
=147	=147	=147	=147	=147	=147	=147	=147	=147	=147
1r	.	0r	.	0r	.	2.f\	.	2dd\]	.
.	.	.	.	.	.	.	.	4cc\	.
.	.	.	.	.	.	4g\	.	4b-\	.
1A	O	.	.	.	.	1e	.	1cc	cle-
=148	=148	=148	=148	=148	=148	=148	=148	=148	=148
2.B-\	cle-	1r	.	0r	.	0d	-mens,	0dd	-mens,
4A\	.	.	.	.	.	.	.	.	.
4G\	.	[1d	O	.	.	.	.	.	.
4F\	.	.	.	.	.	.	.	.	.
[2G\	.	.	.	.	.	.	.	.	.
=149	=149	=149	=149	=149	=149	=149	=149	=149	=149
4G\]	.	2d\]	.	0g	Sal-	1r	.	0r	.
4F\	.	.	.	.	.	.	.	.	.
4E\	.	4c\	.	.	.	.	.	.	.
4D\	.	4B-\	.	.	.	.	.	.	.
1E	.	1c	pi-	.	.	1G	O	.	.
=150	=150	=150	=150	=150	=150	=150	=150	=150	=150
0D	-mens,	0d	-a,	0f	.	2.B-\	pi-	0r	.
.	.	.	.	.	.	4c\	.	.	.
.	.	.	.	.	.	1A	.	.	.
=151	=151	=151	=151	=151	=151	=151	=151	=151	=151
2r	.	1r	.	0g	.	0G	-a,	0r	.
2B-\	O	.	.	.	.	.	.	.	.
2G\	.	1d	O	.	.	.	.	.	.
2B-\	.	.	.	.	.	.	.	.	.
=152	=152	=152	=152	=152	=152	=152	=152	=152	=152
2A\	pi-	2e\	cle-	0c	-ve	1r	.	1r	.
2F\	.	2f\	.	.	.	.	.	.	.
1E	.	1g	.	.	.	1G	O	1ee	O
=153	=153	=153	=153	=153	=153	=153	=153	=153	=153
0D	-a,	2.f\	.	0r	.	1A	cle-	1.ff	cle-
.	.	4d\	.	.	.	.	.	.	.
.	.	1d	-mens,	.	.	1A	-mens,	.	.
.	.	.	.	.	.	.	.	2dd\	.
=154	=154	=154	=154	=154	=154	=154	=154	=154	=154
0r	.	2r	.	0r	.	1B-	O	1dd	-mens,
.	.	2.g\	O	.	.	.	.	.	.
.	.	.	.	.	.	1G	pi-	2.gg\	O
.	.	4f\	.	.	.	.	.	.	.
.	.	4e\	.	.	.	.	.	.	.
.	.	4d\	.	.	.	.	.	4ff\	.
=155	=155	=155	=155	=155	=155	=155	=155	=155	=155
1r	.	2c\	.	0r	.	0A	-a,	4ee\	.
.	.	.	.	.	.	.	.	4dd\	.
.	.	2d\	.	.	.	.	.	1dd	pi-
1A	O	1e	pi-	.	.	.	.	.	.
.	.	.	.	.	.	.	.	2cc#i\	.
=156	=156	=156	=156	=156	=156	=156	=156	=156	=156
1B-	cle-	1d	-a,	0d	Sal-	0r	.	0dd	-a,
2G\	.	2r	.	.	.	.	.	.	.
2B-\	.	2d\	O	.	.	.	.	.	.
=157	=157	=157	=157	=157	=157	=157	=157	=157	=157
2A\	.	2e\	cle-	0c	.	1r	.	1r	.
2F\	.	2f\	.	.	.	.	.	.	.
1E	.	1g	.	.	.	1G	O	1ee	O
=158	=158	=158	=158	=158	=158	=158	=158	=158	=158
0D	-mens,	2.f\	.	0d	.	1A	cle-	1.ff	cle-
.	.	4d\	.	.	.	.	.	.	.
.	.	1d	-mens,	.	.	1A	-mens,	.	.
.	.	.	.	.	.	.	.	2dd\	.
=159	=159	=159	=159	=159	=159	=159	=159	=159	=159
0r	.	2r	.	0G	-ve	1B-	O	1dd	-mens,
.	.	2.g\	O	.	.	.	.	.	.
.	.	.	.	.	.	1G	.	2.gg\	O
.	.	4f\	.	.	.	.	.	.	.
.	.	4e\	.	.	.	.	.	.	.
.	.	4d\	.	.	.	.	.	4ff\	.
=160	=160	=160	=160	=160	=160	=160	=160	=160	=160
1r	.	2c\	.	0r	.	2.A/	pi-	4ee\	.
.	.	.	.	.	.	.	.	4dd\	.
.	.	2d\	.	.	.	.	.	1dd	pi-
.	.	.	.	.	.	4B-\	.	.	.
1A	O	1e	pi-	.	.	1c	.	.	.
.	.	.	.	.	.	.	.	2cc#i\	.
=161	=161	=161	=161	=161	=161	=161	=161	=161	=161
1B-	cle-	1d	-a,	0r	.	1G	-a,	[0dd	-a,
1G	-mens,	1r	.	.	.	[1B-	pi-	.	.
=162	=162	=162	=162	=162	=162	=162	=162	=162	=162
2r	.	0d	Sal-	0r	.	2B-\]	.	0dd]	.
2.B-\	O	.	.	.	.	2G/	.	.	.
.	.	.	.	.	.	1G	-a,	.	.
4A\	.	.	.	.	.	.	.	.	.
4G\	.	.	.	.	.	.	.	.	.
4F\	.	.	.	.	.	.	.	.	.
=163	=163	=163	=163	=163	=163	=163	=163	=163	=163
2E\	pi-	0c	.	0g	Sal-	1r	.	0r	.
2C/	.	.	.	.	.	.	.	.	.
1E	.	.	.	.	.	1G	O	.	.
=164	=164	=164	=164	=164	=164	=164	=164	=164	=164
0D	-a,	0d	.	0f	.	1A	cle-	0r	.
.	.	.	.	.	.	1A	-mens,	.	.
=165	=165	=165	=165	=165	=165	=165	=165	=165	=165
1r	.	0G	-ve,	0g	.	2B-\	O	1r	.
.	.	.	.	.	.	2G/	.	.	.
1G	O	.	.	.	.	1B-	pi-	1dd	o
=166	=166	=166	=166	=166	=166	=166	=166	=166	=166
1A	dul-	1r	.	0c	-ve	1A	-a,	1cc	dul-
1A	-cis	1e	O	.	.	1c	O	1cc	-cis
=167	=167	=167	=167	=167	=167	=167	=167	=167	=167
1F	Ma-	1f	dul-	0r	.	1d	dul-	1a	vir-
1G	.	[1B-	-cis	.	.	1d	-cis	[1b-	-go
=168	=168	=168	=168	=168	=168	=168	=168	=168	=168
0E-i	-ri-	1B-]	.	0r	.	0G	Ma-	2b-\]	.
.	.	.	.	.	.	.	.	2a/	Ma-
.	.	1c	Ma-	.	.	.	.	1g	-ri-
=169	=169	=169	=169	=169	=169	=169	=169	=169	=169
0D	-a,	1d	-ri-	0r	.	0A	-ri-	1f	-a,
.	.	1d	-a,	.	.	.	.	1a	O
=170	=170	=170	=170	=170	=170	=170	=170	=170	=170
1r	.	2r	.	0d	Sal-	1G	-a,	1b-	dul-
.	.	2d\	O	.	.	.	.	.	.
1G	O	1g	dul-	.	.	2r	.	1b-	-cis
.	.	.	.	.	.	2G/	O	.	.
=171	=171	=171	=171	=171	=171	=171	=171	=171	=171
1A	dul-	1e	-cis	0c	.	2.c\	dul-	1cc	vir-
.	.	.	.	.	.	4A/	.	.	.
1A	-cis	2r	.	.	.	1A	-cis,	2.cc\	-go
.	.	2e\	vir-	.	.	.	.	.	.
.	.	.	.	.	.	.	.	4a/	.
=172	=172	=172	=172	=172	=172	=172	=172	=172	=172
1F	vir-	1f	-go	0d	.	2r	.	1a	.
.	.	.	.	.	.	2D/	O	.	.
1G	-go	[1B-	Ma-	.	.	1G	dul-	2r	.
.	.	.	.	.	.	.	.	[2b-\	Ma-
=173	=173	=173	=173	=173	=173	=173	=173	=173	=173
0E-i	Ma-	1B-]	.	0G	-ve	1.G	-cis	4b-\]	.
.	.	.	.	.	.	.	.	4a/	.
.	.	.	.	.	.	.	.	1g	.
.	.	1c	.	.	.	.	.	.	.
.	.	.	.	.	.	2C/	vir-	4f/	.
.	.	.	.	.	.	.	.	4e/	.
=174	=174	=174	=174	=174	=174	=174	=174	=174	=174
[0D	-ri-	0d	-ri-	[0A	Sal-	2.F/	.	2f/	-ri-
.	.	.	.	.	.	.	.	4d/	.
.	.	.	.	.	.	4D/	.	4e/	.
.	.	.	.	.	.	1D	-go	4f/	.
.	.	.	.	.	.	.	.	4g/	.
.	.	.	.	.	.	.	.	[2a/	.
=175	=175	=175	=175	=175	=175	=175	=175	=175	=175
0D]	.	[0dl	-a.	0A]	.	1r	.	4a/]	.
.	.	.	.	.	.	.	.	4g/	.
.	.	.	.	.	.	.	.	1g	.
.	.	.	.	.	.	1A	Ma-	.	.
.	.	.	.	.	.	.	.	2f#i/	.
=176	=176	=176	=176	=176	=176	=176	=176	=176	=176
[0Gl	-a.	0d_	.	[0Gl	-ve.	1.B-	-ri-	[0gl	-a.
.	.	.	.	.	.	2G/	.	.	.
=177	.	=177	.	=177	.	=177	.	=177	.
0G]	.	0d]	.	0G]	.	0Gl	-a.	0g]	.
==	=177	==	=177	==	=177	==	=177	==	=177
*-	*-	*-	*-	*-	*-	*-	*-	*-	*-
!!!RDF**kern: l=long note in original notation
!!!RDF**kern: i=editorial accidental
!!!ENC: Jesse Rodin; Victoria Chang 2011/05/21
!!!END: 2011/05/21/
!!!EED: Jesse Rodin
!!!EEV: 2011/08/15/
!!attribution-level@Jos: 1 (secure, core group [checkmark])
!!!ONB: Translated from MusicXML and edited on 2011/08/15/ by Craig Sapp
!!muse2ps: u^(2) @{OTL2}^C^@{COM}\n@{SCT}^i2I150v75,75,75,75,110c125z18l2780t100
